build/img/sprites/coinVertical.svg

<svg width="24" height="24" viewBox="0 0 24 24" fill="none" xmlns="http://www.w3.org/2000/svg">
<path d="M18.6103 5.25844C17.4787 3.31875 15.93 2.25 14.25 2.25H9.75C8.07 2.25 6.52125 3.31875 5.38969 5.25844C4.33219 7.07062 3.75 9.46875 3.75 12C3.75 14.5312 4.33219 16.9294 5.38969 18.7416C6.52125 20.6812 8.07 21.75 9.75 21.75H14.25C15.93 21.75 17.4787 20.6812 18.6103 18.7416C19.6678 16.9294 20.25 14.5312 20.25 12C20.25 9.46875 19.6678 7.07062 18.6103 5.25844ZM18.7303 11.25H15.7303C15.6717 9.71096 15.3653 8.19145 14.8228 6.75H17.6906C18.2644 8.00437 18.6431 9.5625 18.7303 11.25ZM16.7991 5.25H14.1056C13.7924 4.70655 13.4146 4.2029 12.9806 3.75H14.25C15.1875 3.75 16.0688 4.3125 16.7991 5.25ZM5.25 12C5.25 7.52812 7.3125 3.75 9.75 3.75C12.1875 3.75 14.25 7.52812 14.25 12C14.25 16.4719 12.1875 20.25 9.75 20.25C7.3125 20.25 5.25 16.4719 5.25 12ZM14.25 20.25H12.9834C13.4174 19.7971 13.7952 19.2935 14.1084 18.75H16.8019C16.0688 19.6875 15.1875 20.25 14.25 20.25ZM17.6906 17.25H14.8237C15.3662 15.8085 15.6727 14.289 15.7313 12.75H18.7313C18.6431 14.4375 18.2644 15.9956 17.6906 17.25Z" fill="#78213A"/>
</svg>

<svg width="24" height="24" viewBox="0 0 24 24" fill="none" xmlns="http://www.w3.org/2000/svg"><path d="M18.61 5.258c-1.131-1.94-2.68-3.008-4.36-3.008h-4.5c-1.68 0-3.229 1.069-4.36 3.008C4.332 7.071 3.75 9.468 3.75 12c0 2.531.582 4.93 1.64 6.742 1.131 1.94 2.68 3.008 4.36 3.008h4.5c1.68 0 3.229-1.069 4.36-3.008 1.058-1.813 1.64-4.21 1.64-6.742 0-2.531-.582-4.93-1.64-6.742zm.12 5.992h-3a14.323 14.323 0 00-.907-4.5h2.868c.573 1.254.952 2.813 1.04 4.5zm-1.93-6h-2.694a7.79 7.79 0 00-1.125-1.5h1.269c.938 0 1.819.563 2.55 1.5zM5.25 12c0-4.472 2.063-8.25 4.5-8.25 2.438 0 4.5 3.778 4.5 8.25 0 4.472-2.063 8.25-4.5 8.25-2.438 0-4.5-3.778-4.5-8.25zm9 8.25h-1.267a7.79 7.79 0 001.125-1.5h2.694c-.733.938-1.614 1.5-2.552 1.5zm3.44-3h-2.866c.542-1.441.849-2.961.907-4.5h3c-.088 1.688-.467 3.246-1.04 4.5z" fill="#78213A"/></svg>
